packages/design-assets/icons/16px/Connections.svg

<?xml version="1.0" encoding="UTF-8"?>
<svg width="16px" height="16px" viewBox="0 0 16 16" version="1.1" xmlns="http://www.w3.org/2000/svg" xmlns:xlink="http://www.w3.org/1999/xlink">
    <!-- Generator: Sketch 54.1 (76490) - https://sketchapp.com -->
    <title>Icons/16px/Connections</title>
    <desc>Created with Sketch.</desc>
    <g id="Icons/16px/Connections" stroke="none" stroke-width="1" fill="none" fill-rule="evenodd">
        <path d="M0,6.016 L4,6.016 L4,10.016 L0,10.016 L0,6.016 Z M0,12 L4,12 L4,16 L0,16 L0,12 Z M6,3.78364007e-13 L10,3.78364007e-13 L10,4 L6,4 L6,3.78364007e-13 Z M0,3.78364007e-13 L4,3.78364007e-13 L4,4 L0,4 L0,3.78364007e-13 Z M12,3.78364007e-13 L16,3.78364007e-13 L16,4 L12,4 L12,3.78364007e-13 Z M6,6.016 L10,6.016 L10,10.016 L6,10.016 L6,6.016 Z M13,7 L15,7 L15,9 L13,9 L13,7 Z M13,13 L15,13 L15,15 L13,15 L13,13 Z M7,13 L9,13 L9,15 L7,15 L7,13 Z" id="i-16-connections" fill="#818F99"></path>
    </g>
</svg>

<svg width="16" height="16" xmlns="http://www.w3.org/2000/svg"><path d="M0 6.016h4v4H0v-4zM0 12h4v4H0v-4zM6 0h4v4H6V0zM0 0h4v4H0V0zm12 0h4v4h-4V0zM6 6.016h4v4H6v-4zM13 7h2v2h-2V7zm0 6h2v2h-2v-2zm-6 0h2v2H7v-2z" fill="#818F99" fill-rule="evenodd"/></svg>
